svgs/solid/chess.svg

<svg xmlns="http://www.w3.org/2000/svg" viewBox="0 0 512 512"><!-- Font Awesome Pro 6.0.0-alpha2 by @fontawesome - https://fontawesome.com License - https://fontawesome.com/license (Commercial License) --><path d="M73.999 208H64C55.125 208 48 215.125 48 224V240C48 248.875 55.125 256 64 256H80C79.75 299.125 74.5 342.125 64 384H192C181.5 342.125 176.25 299.125 176 256H192C200.875 256 208 248.875 208 240V224C208 215.125 200.875 208 192 208H181.999L215.875 117.625C217.75 112.75 217 107.25 213.999 102.875C211 98.625 206.125 96 200.875 96H144V64H168C172.375 64 176 60.375 176 56V40C176 35.625 172.375 32 168 32H144V8C144 3.625 140.375 0 136 0H120C115.625 0 112 3.625 112 8V32H88C83.625 32 80 35.625 80 40V56C80 60.375 83.625 64 88 64H112V96H55.125C49.875 96 44.875 98.625 41.875 102.875C38.875 107.25 38.25 112.75 40.125 117.625L73.999 208ZM247.125 459.625L224 448V432C224 423.125 216.875 416 208 416H48C39.125 416 32 423.125 32 432V448L8.875 459.625C3.375 462.25 0 467.875 0 473.875V496C0 504.875 7.125 512 16 512H240C248.875 512 256 504.875 256 496V473.875C256 467.875 252.625 462.25 247.125 459.625ZM339.875 301.75L336.625 384H463.375L460.125 301.75L484.625 281C491.875 274.875 496 266 496 256.5V198C496 194.625 493.375 192 489.999 192H463.625C460.25 192 457.625 194.625 457.625 198V224H432.875V198C432.875 194.625 430.25 192 426.875 192H373.125C369.75 192 367.125 194.625 367.125 198V224H342.375V198C342.375 194.625 339.75 192 336.375 192H309.999C306.625 192 304 194.625 304 198V256.625C304 266 308.125 274.875 315.375 281L339.875 301.75ZM384 304C384 295.125 391.125 288 400 288S416 295.125 416 304V336H384V304ZM503.125 459.625L480 448V432C480 423.125 472.875 416 464 416H336C327.125 416 320 423.125 320 432V448L296.875 459.625C291.375 462.25 288 467.875 288 473.875V496C288 504.875 295.125 512 304 512H496C504.875 512 512 504.875 512 496V473.875C512 467.875 508.625 462.25 503.125 459.625Z"/></svg>

<svg xmlns="http://www.w3.org/2000/svg" viewBox="0 0 512 512"><!-- Font Awesome Pro 5.15.1 by @fontawesome - https://fontawesome.com License - https://fontawesome.com/license (Commercial License) --><path d="M74 208H64a16 16 0 0 0-16 16v16a16 16 0 0 0 16 16h15.94A535.78 535.78 0 0 1 64 384h128a535.78 535.78 0 0 1-15.94-128H192a16 16 0 0 0 16-16v-16a16 16 0 0 0-16-16h-10l33.89-90.38a16 16 0 0 0-15-21.62H144V64h24a8 8 0 0 0 8-8V40a8 8 0 0 0-8-8h-24V8a8 8 0 0 0-8-8h-16a8 8 0 0 0-8 8v24H88a8 8 0 0 0-8 8v16a8 8 0 0 0 8 8h24v32H55.09a16 16 0 0 0-15 21.62zm173.16 251.58L224 448v-16a16 16 0 0 0-16-16H48a16 16 0 0 0-16 16v16L8.85 459.58A16 16 0 0 0 0 473.89V496a16 16 0 0 0 16 16h224a16 16 0 0 0 16-16v-22.11a16 16 0 0 0-8.84-14.31zm92.77-157.78l-3.29 82.2h126.72l-3.29-82.21 24.6-20.79A32 32 0 0 0 496 256.54V198a6 6 0 0 0-6-6h-26.38a6 6 0 0 0-6 6v26h-24.71v-26a6 6 0 0 0-6-6H373.1a6 6 0 0 0-6 6v26h-24.71v-26a6 6 0 0 0-6-6H310a6 6 0 0 0-6 6v58.6a32 32 0 0 0 11.36 24.4zM384 304a16 16 0 0 1 32 0v32h-32zm119.16 155.58L480 448v-16a16 16 0 0 0-16-16H336a16 16 0 0 0-16 16v16l-23.15 11.58a16 16 0 0 0-8.85 14.31V496a16 16 0 0 0 16 16h192a16 16 0 0 0 16-16v-22.11a16 16 0 0 0-8.84-14.31z"/></svg>
